X:1
T:Holy Sabbath
T:Holy Sabbath
T:Charles Hutchinson Gabriel
T:Frances Jane (Fanny) Crosby, 1901
T:Public Domain Courtesy of the Cyber Hymnal™
C:Charles Hutchinson Gabriel
Z:Public Domain
Z:Courtesy of the Cyber Hymnal™
%%score ( 1 2 ) ( 3 4 )
L:1/8
Q:1/4=110
M:4/4
K:Bb
V:1 treble 
V:2 treble 
V:3 bass 
V:4 bass 
V:1
 [DF]2 [DF]2 [^CG]2 [DF]2 | [Fd]2 ([DB][EG]) [DF]4 | [EF]2 (AG) F2 (BA) | [EG]2 (cB) [FA]4 | %4
w: 1.~Ho- ly Sab- bath,|day of * rest;|By our * great Re- *|deem- er * blest;|
w: 2.~Day of wor- ship,|hal- lowed * hour,|May the * Spir- it’s *|quick- ening * power|
w: 3.~Ho- ly Sab- bath,|may thy * light,|Pure and * ho- ly, *|calm and * bright,|
 [FB]2 [Fc]2 [Fd]3 [Fd] | ([Ge][Fd]) ([Ec][DB]) (B2 A2) x2 | (Bc) (de) [Ff]3 [Ge] | %7
w: When in ma- jes-|ty * He * rose, *|More * than * con- queror|
w: Give us grace and|strength * a- * new, *|While * our * jour- ney|
w: Lift our hearts to|God * a- * bove, *|Spring * of * joy, of|
 [Fd]2 [Ec]2 [DB]4 ||"^Refrain" [DF] z z [B,F] [EF] z2 [EF] | [DF] z2 [B,F] [EF] z | %10
w: o’er His foes.|||
w: we pur- sue.|Soft- ly now we|hear Him say,|
w: life, of love.|||
 [EG][FA] [FB]3 [F=B] [Gc]3 [Gd] x2 | [Ge]8 | [Fe]2 [Fd]2 [Fc]3 [FA] | Bc (de) [Ff]4 | %14
w: ||||
w: “Turn from earth- ly toil a-|way;|Let your prayers to|Hea- ven a- * scend;|
w: ||||
 ([EG][FA]) (Bc) [Fd]3 [Ge] | [Fd]2 [Ec]2 [DB]4 |] %16
w: ||
w: I * will * keep you|to the end.”|
w: ||
V:2
 x8 | x8 | x2 E2 F2 F2 | x2 G2 x4 | x8 | x4 F4 x2 | F2 F2 x4 | x8 || x8 | x6 | x12 | x8 | x8 | %13
 F2 F2 x4 | x2 F2 x4 | x8 |] %16
V:3
 [B,,B,]2 [B,,F,]2 [B,,=E,]2 [B,,F,]2 | [B,,B,]2 [B,,B,]2 [B,,B,]4 | %2
w: ~ ~ ~ ~|~ ~ ~|
 [C,A,]2 [C,F,]2 [D,B,]2 [D,B,]2 | [E,B,]2 (B,C) C4 | [D,B,]2 [F,A,]2 [B,,B,]3 [B,,B,] | %5
w: ~ ~ ~ ~|~ ~ * ~|~ ~ ~ ~|
 [B,,B,]2 [B,,B,]2 D2 z x3 | ([D,B,][F,A,]) (B,C) [B,D]3 [E,B,] | [F,B,]2 [F,A,]2 [B,,B,]4 || %8
w: ~ ~ ~|~ * ~ * ~ ~|~ ~ ~|
 A, z z B, A, z z A, | B, z z B, A, z | [F,,F,A,][F,,F,C] D3 z D E3 z =B, | C8 | %12
w: ~ ~ ~ ~|~ ~ ~|~ ~ ~ ~ ~ ~||
 [A,,C]2 B,2 [F,A,]3 [E,C] | [D,B,][F,A,] (B,C) [B,D]4 | ([E,B,][C,C]) ([D,B,][F,A,]) B,3 [E,B,] | %15
w: ~ ~ ~ ~|~ ~ ~ * ~|a- * way; * * *|
 [F,B,]2 [F,A,]2 [B,,B,]4 |] %16
w: |
V:4
 x8 | x8 | x8 | x2 =E,2 (F,2 _E,2) | x8 | x4 F,3 (C2 E,) | x2 B,2 x4 | x8 || %8
 B,,2 D,2 C,2 [F,,F,]2 | B,,2 D,2 C,2 | x2 =B,,2 (G,,2 C,2) G,,2 x2 | C,2 G,2 (E,2 C,2) | %12
 x2 (B,,D,) x4 | x2 B,2 x4 | x4 B,3 x | x8 |] %16

